images/ico-bag-yellow.svg

<svg height="44" width="42" xmlns="http://www.w3.org/2000/svg"><path d="m41.628 42.877-3.175-29.602c-.047-.409-.384-.717-.787-.717h-8.571v-3.523c0-4.444-3.563-8.06-7.947-8.06-4.384.002-7.948 3.619-7.948 8.06v3.521h-8.571c-.408 0-.747.308-.792.719l-3.186 29.752c-.019.232.05.451.195.61.149.173.365.271.597.271h39.425c.437 0 .79-.358.79-.803 0-.063-.002-.145-.03-.228zm-27.633-22.222c-.519 0-.939-.431-.939-.955 0-.525.422-.953.939-.953s.942.426.942.953-.425.955-.942.955zm-.792-3.383c-1.032.347-1.732 1.319-1.732 2.428 0 1.414 1.134 2.565 2.524 2.565 1.395 0 2.529-1.153 2.529-2.565 0-1.109-.705-2.081-1.737-2.428v-3.104h12.723v3.104c-1.032.347-1.732 1.319-1.732 2.428 0 1.414 1.134 2.565 2.527 2.565 1.392 0 2.522-1.153 2.522-2.565 0-1.109-.703-2.081-1.732-2.428v-3.104h7.859l3.02 28.133h-37.653l3.018-28.133h7.861v3.104zm15.102 3.383c-.522 0-.947-.431-.947-.955 0-.525.427-.953.947-.953.517 0 .939.428.939.953 0 .524-.422.955-.939.955zm-7.157-18.071c3.508 0 6.362 2.895 6.362 6.454v3.52h-12.723v-3.523c0-3.553 2.854-6.448 6.361-6.451z" fill="#fcd139" fill-rule="evenodd"/></svg>

<svg 
 xmlns="http://www.w3.org/2000/svg"
 xmlns:xlink="http://www.w3.org/1999/xlink"
 width="42px" height="44px">
<path fill-rule="evenodd"  fill="#fcd139"
 d="M41.628,42.877 L38.453,13.275 C38.406,12.866 38.069,12.558 37.666,12.558 L29.095,12.558 L29.095,9.035 C29.095,4.591 25.532,0.975 21.148,0.975 C16.764,0.977 13.200,4.594 13.200,9.035 L13.200,12.556 L4.629,12.556 C4.221,12.556 3.882,12.864 3.837,13.275 L0.651,43.027 C0.632,43.259 0.701,43.478 0.846,43.637 C0.995,43.810 1.211,43.908 1.443,43.908 L40.868,43.908 C41.305,43.908 41.658,43.550 41.658,43.105 C41.658,43.042 41.656,42.960 41.628,42.877 ZM13.995,20.655 C13.476,20.655 13.056,20.224 13.056,19.700 C13.056,19.175 13.478,18.747 13.995,18.747 C14.512,18.747 14.937,19.173 14.937,19.700 C14.937,20.227 14.512,20.655 13.995,20.655 ZM13.203,17.272 C12.171,17.619 11.471,18.591 11.471,19.700 C11.471,21.114 12.605,22.265 13.995,22.265 C15.390,22.265 16.524,21.112 16.524,19.700 C16.524,18.591 15.819,17.619 14.787,17.272 L14.787,14.168 L27.510,14.168 L27.510,17.272 C26.478,17.619 25.778,18.591 25.778,19.700 C25.778,21.114 26.912,22.265 28.305,22.265 C29.697,22.265 30.827,21.112 30.827,19.700 C30.827,18.591 30.124,17.619 29.095,17.272 L29.095,14.168 L36.954,14.168 L39.974,42.301 L2.321,42.301 L5.339,14.168 L13.200,14.168 L13.200,17.272 L13.203,17.272 ZM28.305,20.655 C27.783,20.655 27.358,20.224 27.358,19.700 C27.358,19.175 27.785,18.747 28.305,18.747 C28.822,18.747 29.244,19.175 29.244,19.700 C29.244,20.224 28.822,20.655 28.305,20.655 ZM21.148,2.584 C24.656,2.584 27.510,5.479 27.510,9.038 L27.510,12.558 L14.787,12.558 L14.787,9.035 C14.787,5.482 17.641,2.587 21.148,2.584 Z"/>
</svg>
